public/static/icons/editor/history_redo.svg

<svg height="24" viewBox="0 0 24 24" width="24" xmlns="http://www.w3.org/2000/svg"><path d="m9.91018455 2.28593239c-.24801721-.10389886-.53625392-.04692231-.72729459.14411835l-7.98682185 6.27416385c-.26142414.25807143-.26142414.68372238 0 .94514652l7.98682185 6.24399989c.12736002.12736.29829094.1977435.47257327.1977435.08714051 0 .17428233-.0201098.25472003-.0536252.25136864-.1038988.39883834-.3452132.39883834-.6166916v-3.7403666c8.5431869 0 12.2768494 2.4097873 11.7104328 10.0849139 3.616358-12.27684929-3.3281226-15.05196091-11.7104328-15.05196091v-3.81075008c0-.27147837-.1474697-.51279147-.39883834-.61669162z" fill-rule="evenodd" transform="matrix(-1 0 0 1 24 0)"/></svg>

<svg xmlns="http://www.w3.org/2000/svg" width="24" height="24" viewBox="0 0 24 24">
  <path fill-rule="evenodd" d="M9.91018455,2.28593239 C9.66216734,2.18203353 9.37393063,2.23901008 9.18288996,2.43005074 L1.19606811,8.70421459 C0.934643965,8.96228602 0.934643965,9.38793697 1.19606811,9.64936111 L9.18288996,15.893361 C9.31024998,16.020721 9.4811809,16.0911045 9.65546323,16.0911045 C9.74260374,16.0911045 9.82974556,16.0709947 9.91018326,16.0374793 C10.1615519,15.9335805 10.3090216,15.6922661 10.3090216,15.4207877 L10.3090216,11.6804211 C18.8522085,11.6804211 22.585871,14.0902084 22.0194544,21.765335 C25.6358124,9.48848571 18.6913318,6.71337409 10.3090216,6.71337409 L10.3090216,2.90262401 C10.3090216,2.63114564 10.1615519,2.38983254 9.91018326,2.28593239 L9.91018455,2.28593239 Z" transform="matrix(-1 0 0 1 24 0)"/>
</svg>
